X:1
T:The Cruise of the Calabar
M:4/4
L:1/4
K:C
C/2-D/2| E EE/2-D/2 C| G- A CC/2-A,/2| G, A, C C| D3| G/2E/2| G E GA/2-B/2|\
 c d c A| G EE/2-D/2 C| D3E/2-F/2| G E FA/2-B/2| c d c A| G EE/2-D/2 C|\
 D3C/2-D/2| E E/2E/2 ED/2-C/2| G A A,C/2-A,/2| G,A,/2-A,/2 C C| C3||\
